assets/Rice ball/Flat/rice_ball_flat.svg

<svg width="32" height="32" viewBox="0 0 32 32" fill="none" xmlns="http://www.w3.org/2000/svg">
<path d="M28.5398 17.591L21.7468 5.808C20.5518 3.737 18.4138 2.5 16.0258 2.5C13.6378 2.5 11.4998 3.737 10.3058 5.809L3.51178 17.592C2.19778 19.873 2.19978 22.596 3.51678 24.873C4.82978 27.145 7.17778 28.5 9.79778 28.5H22.2538C24.8788 28.5 27.2298 27.142 28.5428 24.865C29.8578 22.588 29.8558 19.868 28.5398 17.591Z" fill="#9B9B9B"/>
<path d="M11.1719 6.308L4.37787 18.091C3.24487 20.059 3.24587 22.407 4.38187 24.373C5.51487 26.331 7.53887 27.5 9.79787 27.5H22.2539C24.5169 27.5 26.5439 26.328 27.6769 24.365C28.8109 22.401 28.8089 20.055 27.6739 18.091L20.8799 6.308C19.8669 4.549 18.0519 3.5 16.0259 3.5C13.9999 3.5 12.1849 4.55 11.1719 6.308Z" fill="#F4F4F4"/>
<path d="M17.8225 7.43299C17.5625 7.79299 17.0625 7.86299 16.7125 7.60299L15.1126 6.42299C14.7526 6.16299 14.6826 5.66299 14.9426 5.31299C15.2026 4.95299 15.7026 4.88299 16.0526 5.14299L17.6525 6.32299C18.0126 6.58299 18.0826 7.08299 17.8225 7.43299Z" fill="#9B9B9B"/>
<path d="M11.7839 8.72198C12.0439 8.36199 12.5439 8.29199 12.8839 8.55199C13.2439 8.81298 13.3129 9.31298 13.0539 9.66197L11.8739 11.262C11.6139 11.612 11.1239 11.682 10.7639 11.422C10.4139 11.162 10.3439 10.662 10.6039 10.322L11.7839 8.72198Z" fill="#9B9B9B"/>
<path d="M22.1521 10.823C21.9521 10.433 21.4721 10.283 21.0821 10.483C20.6921 10.683 20.5421 11.163 20.7421 11.553L21.6621 13.313C21.8621 13.703 22.3421 13.853 22.7321 13.653C23.1222 13.453 23.2722 12.973 23.0722 12.583L22.1521 10.823Z" fill="#9B9B9B"/>
<path d="M12.4841 13.8421C12.8841 13.6621 13.3541 13.8421 13.534 14.2421L14.344 16.0521C14.524 16.452 14.344 16.922 13.944 17.102C13.544 17.282 13.0741 17.102 12.8941 16.702L12.0841 14.8921C11.9041 14.4921 12.0841 14.0221 12.4841 13.8421Z" fill="#9B9B9B"/>
<path d="M7.95385 15.613L6.19385 16.533C5.80385 16.733 5.65385 17.2131 5.85385 17.6031C6.05385 17.9931 6.53385 18.1431 6.92385 17.9431L8.68385 17.0231C9.07385 16.8231 9.22385 16.343 9.02385 15.953C8.81385 15.563 8.33385 15.412 7.95385 15.613Z" fill="#9B9B9B"/>
<path d="M24.8921 17.492L26.4921 18.672C26.8421 18.932 26.9121 19.432 26.6621 19.782C26.4021 20.142 25.9021 20.212 25.5521 19.952L23.9521 18.772C23.5921 18.512 23.5221 18.012 23.7821 17.662C24.0421 17.302 24.5421 17.232 24.8921 17.492Z" fill="#9B9B9B"/>
<path d="M20.1324 15.172L18.1524 15.312C17.7124 15.342 17.3824 15.722 17.4224 16.162C17.4524 16.592 17.8324 16.9219 18.2724 16.8919L20.2524 16.752C20.6924 16.722 21.0224 16.342 20.9824 15.902C20.9524 15.462 20.5724 15.133 20.1324 15.172Z" fill="#9B9B9B"/>
<path d="M23.5816 23.483L25.0416 22.133C25.3616 21.833 25.8615 21.853 26.1615 22.173C26.4615 22.493 26.4415 22.993 26.1215 23.293L24.6616 24.643C24.3416 24.943 23.8316 24.923 23.5416 24.603C23.2416 24.283 23.2616 23.783 23.5816 23.483Z" fill="#9B9B9B"/>
<path d="M7.51343 21.103C7.29343 20.723 6.81343 20.593 6.43343 20.813C6.05343 21.033 5.92343 21.5129 6.14343 21.8929L7.13343 23.6128C7.35343 23.9928 7.83343 24.1228 8.21343 23.9028C8.59343 23.6828 8.72343 23.2029 8.51343 22.8229L7.51343 21.103Z" fill="#9B9B9B"/>
<path d="M17.7232 11.392C18.1232 11.572 18.3132 12.032 18.1432 12.432C17.9732 12.843 17.5032 13.022 17.1032 12.852L15.2833 12.072C14.8733 11.902 14.6933 11.432 14.8633 11.032C15.0333 10.622 15.5033 10.442 15.9033 10.612L17.7232 11.392Z" fill="#9B9B9B"/>
<path d="M9.52911 19C9.52911 18.448 9.97711 18 10.5291 18H21.5281C22.0801 18 22.5281 18.448 22.5281 19V27C22.5281 28.657 21.1851 30 19.5281 30H12.5291C10.8721 30 9.52911 28.657 9.52911 27V19Z" fill="#533566"/>
</svg>

<svg xmlns="http://www.w3.org/2000/svg" width="32" height="32" fill="none"><path fill="#9B9B9B" d="M28.54 17.591 21.747 5.808A6.54 6.54 0 0 0 16.026 2.5a6.535 6.535 0 0 0-5.72 3.309L3.512 17.592a7.21 7.21 0 0 0 .005 7.281 7.182 7.182 0 0 0 6.28 3.627h12.457a7.186 7.186 0 0 0 6.289-3.635 7.197 7.197 0 0 0-.003-7.274Z"/><path fill="#F4F4F4" d="M11.172 6.308 4.378 18.091a6.223 6.223 0 0 0 .004 6.282A6.195 6.195 0 0 0 9.798 27.5h12.456a6.2 6.2 0 0 0 5.423-3.135 6.208 6.208 0 0 0-.003-6.274L20.88 6.308A5.545 5.545 0 0 0 16.026 3.5a5.547 5.547 0 0 0-4.854 2.808Z"/><path fill="#9B9B9B" d="M17.823 7.433c-.26.36-.76.43-1.11.17l-1.6-1.18a.788.788 0 0 1-.17-1.11c.26-.36.76-.43 1.11-.17l1.6 1.18c.36.26.43.76.17 1.11ZM11.784 8.722c.26-.36.76-.43 1.1-.17a.79.79 0 0 1 .17 1.11l-1.18 1.6c-.26.35-.75.42-1.11.16a.785.785 0 0 1-.16-1.1l1.18-1.6ZM22.152 10.823a.794.794 0 0 0-1.41.73l.92 1.76a.794.794 0 0 0 1.41-.73l-.92-1.76ZM12.484 13.842c.4-.18.87 0 1.05.4l.81 1.81a.795.795 0 0 1-1.45.65l-.81-1.81c-.18-.4 0-.87.4-1.05ZM7.954 15.613l-1.76.92a.794.794 0 0 0 .73 1.41l1.76-.92c.39-.2.54-.68.34-1.07a.799.799 0 0 0-1.07-.34ZM24.892 17.492l1.6 1.18c.35.26.42.76.17 1.11-.26.36-.76.43-1.11.17l-1.6-1.18a.788.788 0 0 1-.17-1.11c.26-.36.76-.43 1.11-.17ZM20.132 15.172l-1.98.14c-.44.03-.77.41-.73.85.03.43.41.76.85.73l1.98-.14c.44-.03.77-.41.73-.85a.782.782 0 0 0-.85-.73ZM23.582 23.483l1.46-1.35c.32-.3.82-.28 1.12.04.3.32.28.82-.04 1.12l-1.46 1.35a.791.791 0 1 1-1.08-1.16ZM7.513 21.103a.788.788 0 0 0-1.08-.29c-.38.22-.51.7-.29 1.08l.99 1.72c.22.38.7.51 1.08.29a.8.8 0 0 0 .3-1.08l-1-1.72ZM17.723 11.392c.4.18.59.64.42 1.04a.788.788 0 0 1-1.04.42l-1.82-.78a.79.79 0 0 1-.42-1.04.79.79 0 0 1 1.04-.42l1.82.78Z"/><path fill="#533566" d="M9.53 19a1 1 0 0 1 1-1h10.998a1 1 0 0 1 1 1v8a3 3 0 0 1-3 3H12.53a3 3 0 0 1-3-3v-8Z"/></svg>
